X: 14032
T: GILLIAN'S HARP
C: Bob McQuillen 12 July'10
B: Bob's Note Book 14 #32
%R: march
%D:2010
Z: 2020 John Chambers <jc:trillian.mit.edu>
M: C
L: 1/8
P: (SLOW MARCH)
K: D
AB \
| d2d2 cde2 | d2cB A2AA | d2cd e2de | fafd e2fe |\
| d2ed cdec | defg a2AA | B2d2 cde2 | d4   d2  :|
|: fg \
| a2ag fafd | cdef g2fg | a2ag fdgf | edcB A2AA |\
| BGBd A2FA | defg a2ag | f2d2 edc2 | d2D2 D2  :|
%%begintext align
%% If you read about
%% the tune called "Fiona's Harp", then there's not much
%% more to tell you about this one. They're both sweet
%% sisters, and I'm real glad these tunes came along.
%% Much love to you both from MAC
%%endtext

%%sep 1 1 500

%%sep 1 1 500

